icons/1_Primary/one.com.svg

<svg width="1024" height="1024" fill="none" xmlns="http://www.w3.org/2000/svg"><g clip-path="url(#a)"><path d="M512 1024c282.77 0 512-229.23 512-512S794.77 0 512 0 0 229.23 0 512s229.23 512 512 512Z" fill="#98DC9A"/><path d="M854.32 464.37a41.573 41.573 0 0 0-31.26 14.11A41.67 41.67 0 0 0 750.14 506v53.58H771v-54.3a20.841 20.841 0 0 1 41.66.71v53.58h20.84v-54.28a20.841 20.841 0 0 1 41.66.71v53.58H896V506a41.677 41.677 0 0 0-41.68-41.68m-172.65 74.47a26.792 26.792 0 0 1-18.93-45.737 26.79 26.79 0 1 1 18.94 45.737m0-74.42a47.63 47.63 0 1 0 43.998 29.404 47.611 47.611 0 0 0-25.772-25.778 47.614 47.614 0 0 0-18.226-3.626ZM580.5 485.21a26.693 26.693 0 0 1 19.42 8.36l14.73-14.73a47.63 47.63 0 1 0 0 66.32l-14.73-14.73a26.78 26.78 0 1 1-19.42-45.22Zm-86.36 38.7a17.864 17.864 0 0 1 16.501 11.025 17.86 17.86 0 1 1-16.501-11.025Zm-111.59-20.84a26.797 26.797 0 0 1 25.265-17.86 26.794 26.794 0 0 1 25.265 17.86h-50.53Zm72.89 8.93a47.59 47.59 0 1 0-4.09 19.35h-25a26.802 26.802 0 0 1-44.27-11.9h72.79c.387-2.465.581-4.955.58-7.45h-.01Zm-163.72-47.63A47.63 47.63 0 0 0 244.09 512v47.63h20.84v-48.42a26.787 26.787 0 0 1 8.239-18.607 26.786 26.786 0 0 1 37.645.555A26.787 26.787 0 0 1 318.5 512v47.63h20.84v-48.57a47.629 47.629 0 0 0-47.62-46.69Zm-116.09 74.42a26.785 26.785 0 0 1-24.75-16.538 26.783 26.783 0 0 1 5.807-29.195 26.79 26.79 0 1 1 18.943 45.733Zm0-74.42a47.633 47.633 0 0 0-44.011 29.396 47.631 47.631 0 0 0 34.705 64.948 47.625 47.625 0 0 0 48.898-20.251 47.634 47.634 0 0 0-5.922-60.143 47.632 47.632 0 0 0-33.68-13.95" fill="#fff"/></g><defs><clipPath id="a"><path fill="#fff" d="M0 0h1024v1024H0z"/></clipPath></defs></svg>

<svg width="1024" height="1024" viewBox="0 0 1024 1024" fill="none" xmlns="http://www.w3.org/2000/svg">
<g clip-path="url(#clip0_2_3015)">
<path d="M512 1024C794.77 1024 1024 794.77 1024 512C1024 229.23 794.77 0 512 0C229.23 0 0 229.23 0 512C0 794.77 229.23 1024 512 1024Z" fill="#98DC9A"/>
<path d="M854.32 464.37C848.406 464.363 842.558 465.619 837.168 468.052C831.777 470.485 826.968 474.04 823.06 478.48C817.464 472.136 810.069 467.645 801.859 465.605C793.649 463.565 785.012 464.072 777.097 467.059C769.182 470.046 762.364 475.372 757.548 482.327C752.733 489.283 750.149 497.54 750.14 506V559.58H771V505.28C771.233 499.851 773.578 494.728 777.533 491.003C781.489 487.278 786.743 485.245 792.176 485.337C797.609 485.43 802.791 487.641 806.617 491.499C810.444 495.357 812.612 500.556 812.66 505.99V559.57H833.5V505.29C833.733 499.861 836.078 494.738 840.033 491.013C843.989 487.288 849.243 485.254 854.676 485.347C860.109 485.44 865.291 487.651 869.117 491.509C872.944 495.367 875.112 500.566 875.16 506V559.58H896V506C896 494.946 891.609 484.344 883.792 476.528C875.976 468.711 865.374 464.32 854.32 464.32M681.67 538.79C676.372 538.788 671.194 537.215 666.789 534.27C662.385 531.325 658.953 527.141 656.927 522.245C654.901 517.35 654.371 511.963 655.406 506.767C656.441 501.571 658.993 496.799 662.74 493.053C666.487 489.307 671.261 486.757 676.457 485.724C681.654 484.691 687.04 485.222 691.935 487.25C696.829 489.278 701.013 492.712 703.956 497.117C706.899 501.523 708.47 506.702 708.47 512C708.47 519.105 705.648 525.919 700.624 530.943C695.6 535.968 688.785 538.79 681.68 538.79M681.68 464.37C672.259 464.368 663.05 467.16 655.216 472.392C647.382 477.625 641.275 485.063 637.669 493.766C634.062 502.469 633.118 512.046 634.954 521.286C636.791 530.526 641.326 539.014 647.987 545.676C654.648 552.338 663.135 556.875 672.374 558.714C681.614 560.553 691.191 559.61 699.895 556.005C708.599 552.401 716.038 546.296 721.272 538.463C726.507 530.63 729.3 521.421 729.3 512C729.302 505.746 728.071 499.552 725.678 493.774C723.286 487.995 719.778 482.744 715.356 478.321C710.934 473.898 705.684 470.39 699.906 467.996C694.128 465.602 687.935 464.37 681.68 464.37ZM580.5 485.21C584.136 485.208 587.734 485.948 591.073 487.386C594.412 488.823 597.423 490.928 599.92 493.57L614.65 478.84C608.049 472.033 599.565 467.352 590.287 465.395C581.009 463.438 571.357 464.296 562.569 467.857C553.781 471.419 546.256 477.523 540.958 485.387C535.66 493.251 532.829 502.518 532.829 512C532.829 521.482 535.66 530.749 540.958 538.613C546.256 546.477 553.781 552.581 562.569 556.143C571.357 559.704 581.009 560.562 590.287 558.605C599.565 556.648 608.049 551.967 614.65 545.16L599.92 530.43C596.868 533.645 593.065 536.052 588.852 537.434C584.64 538.817 580.151 539.132 575.786 538.352C571.422 537.572 567.32 535.72 563.848 532.963C560.376 530.207 557.643 526.631 555.893 522.558C554.144 518.484 553.433 514.04 553.825 509.624C554.217 505.208 555.699 500.958 558.138 497.256C560.577 493.554 563.897 490.516 567.8 488.413C571.703 486.311 576.067 485.21 580.5 485.21ZM494.14 523.91C497.673 523.91 501.126 524.958 504.063 526.92C507 528.882 509.289 531.672 510.641 534.935C511.993 538.199 512.346 541.79 511.657 545.254C510.968 548.719 509.267 551.901 506.769 554.399C504.271 556.897 501.089 558.598 497.625 559.287C494.16 559.976 490.569 559.622 487.306 558.271C484.042 556.919 481.253 554.63 479.29 551.693C477.328 548.755 476.28 545.302 476.28 541.77C476.28 539.425 476.742 537.102 477.64 534.935C478.537 532.768 479.853 530.8 481.511 529.141C483.17 527.483 485.139 526.167 487.306 525.27C489.472 524.372 491.795 523.91 494.14 523.91ZM382.55 503.07C384.399 497.846 387.82 493.324 392.345 490.126C396.87 486.927 402.274 485.21 407.815 485.21C413.356 485.21 418.761 486.927 423.285 490.126C427.81 493.324 431.232 497.846 433.08 503.07H382.55ZM455.44 512C455.428 500.239 451.062 488.899 443.183 480.167C435.305 471.436 424.472 465.93 412.774 464.714C401.076 463.497 389.342 466.655 379.835 473.578C370.328 480.501 363.721 490.7 361.289 502.207C358.857 513.713 360.772 525.713 366.664 535.891C372.556 546.07 382.009 553.706 393.198 557.327C404.388 560.947 416.522 560.297 427.26 555.5C437.999 550.703 446.58 542.1 451.35 531.35H426.35C423.021 534.536 418.926 536.81 414.462 537.952C409.997 539.094 405.314 539.066 400.863 537.869C396.413 536.673 392.347 534.349 389.056 531.123C385.766 527.896 383.363 523.876 382.08 519.45H454.87C455.257 516.985 455.451 514.495 455.45 512H455.44ZM291.72 464.37C279.088 464.37 266.973 469.388 258.041 478.32C249.108 487.253 244.09 499.368 244.09 512V559.63H264.93V511.21C265.122 504.165 268.082 497.48 273.169 492.603C278.255 487.725 285.059 485.048 292.105 485.152C299.152 485.256 305.874 488.132 310.814 493.158C315.755 498.183 318.516 504.953 318.5 512V559.63H339.34V511.06C339.094 498.593 333.969 486.72 325.065 477.99C316.162 469.26 304.19 464.37 291.72 464.37ZM175.63 538.79C170.332 538.79 165.152 537.219 160.747 534.275C156.341 531.331 152.907 527.147 150.88 522.252C148.852 517.357 148.321 511.97 149.355 506.774C150.389 501.577 152.94 496.803 156.687 493.057C160.434 489.31 165.207 486.758 170.404 485.725C175.601 484.691 180.987 485.222 185.882 487.249C190.778 489.277 194.962 492.711 197.905 497.116C200.849 501.522 202.42 506.701 202.42 512C202.42 519.105 199.598 525.919 194.574 530.943C189.55 535.968 182.735 538.79 175.63 538.79ZM175.63 464.37C166.21 464.368 157 467.16 149.166 472.392C141.332 477.625 135.225 485.063 131.619 493.766C128.012 502.469 127.068 512.046 128.904 521.286C130.741 530.526 135.276 539.014 141.937 545.676C148.598 552.338 157.085 556.875 166.324 558.714C175.564 560.553 185.141 559.61 193.845 556.005C202.549 552.401 209.988 546.296 215.222 538.463C220.457 530.63 223.25 521.421 223.25 512C223.25 499.368 218.232 487.253 209.3 478.32C200.367 469.388 188.253 464.37 175.62 464.37" fill="white"/>
</g>
<defs>
<clipPath id="clip0_2_3015">
<rect width="1024" height="1024" fill="white"/>
</clipPath>
</defs>
</svg>
